dist/img/picture/brands/binotto.svg

<svg width="90" height="32" viewBox="0 0 90 32" fill="none" xmlns="http://www.w3.org/2000/svg">
<path d="M14.2759 7.47091C14.7414 6.72461 15 5.87171 15 4.96549C15 4.11259 14.7931 3.36629 14.431 2.67331C14.0172 1.98032 13.5 1.44725 12.931 1.07411C12.3621 0.647653 11.6897 0.381119 10.9655 0.274506C10.2414 0.167893 9.10345 0.0612793 7.60345 0.0612793H0V19.6248H6.46552C8.89655 19.5715 10.4483 19.5715 11.069 19.5182C12.1034 19.4116 12.931 19.0918 13.6552 18.5587C14.3793 18.0789 14.8966 17.386 15.3103 16.533C15.7241 15.6801 15.931 14.8272 15.931 13.921C15.931 12.8016 15.6207 11.8421 15 10.9891C14.3793 10.1362 13.5 9.54987 12.3103 9.23003C13.0862 8.80357 13.7586 8.27051 14.2759 7.47091ZM11.2241 5.55187C11.2241 6.19155 11.0172 6.67131 10.6552 7.09776C10.2931 7.47091 9.77586 7.73744 9.10345 7.79075C8.74138 7.84405 7.81034 7.84405 6.31034 7.84405H3.77586V3.31299H6C7.81034 3.31299 8.89655 3.36629 9.25862 3.36629C9.87931 3.47291 10.3966 3.68613 10.7069 4.05928C11.069 4.43243 11.2241 4.96549 11.2241 5.55187ZM11.8966 13.7611C11.8966 14.4541 11.6897 15.0405 11.3276 15.4136C10.9655 15.8401 10.5 16.0533 9.93103 16.2132C9.56897 16.3198 8.68966 16.3198 7.2931 16.3198H3.77586V11.0958H6.87931C8.58621 11.0958 9.77586 11.2024 10.2931 11.3623C10.8103 11.5755 11.2241 11.8421 11.4828 12.2152C11.7931 12.6417 11.8966 13.1747 11.8966 13.7611Z" fill="#E2001A"/>
<path d="M20.8448 3.52621V0.0612793H17.1207V3.52621H20.8448Z" fill="#E2001A"/>
<path d="M20.8448 19.6249V5.44531H17.1207V19.6249H20.8448Z" fill="#E2001A"/>
<path d="M35.069 10.7759C35.069 9.65643 35.0172 8.85683 34.8621 8.21715C34.7586 7.63078 34.5 7.09771 34.1379 6.67126C33.8276 6.1915 33.3103 5.81835 32.6379 5.55182C31.9655 5.23198 31.2414 5.12537 30.4655 5.12537C28.6552 5.12537 27.1552 5.92497 25.9655 7.57747V5.49851H22.6035V19.6781H26.2759V13.2813C26.2759 11.6821 26.3793 10.616 26.5345 10.0296C26.7414 9.44321 27.0517 8.96345 27.5172 8.64361C27.9828 8.32377 28.6035 8.11054 29.1724 8.11054C29.6379 8.11054 30.1035 8.21715 30.4138 8.48369C30.7241 8.75022 30.9828 9.07006 31.1897 9.54982C31.3448 9.97627 31.4483 10.9891 31.4483 12.535V19.7847H35.1207L35.069 10.7759Z" fill="#E2001A"/>
<path d="M50.431 12.4817C50.431 10.3494 49.7586 8.5903 48.4655 7.20433C47.1207 5.81835 45.4138 5.12537 43.3448 5.12537C42 5.12537 40.8103 5.44521 39.6724 6.03158C38.5862 6.67126 37.7069 7.52417 37.1379 8.75022C36.5172 9.92297 36.2586 11.149 36.2586 12.3751C36.2586 14.0276 36.569 15.3602 37.1379 16.533C37.7586 17.6524 38.5862 18.5587 39.7758 19.145C40.9138 19.7314 42.1034 19.9979 43.3448 19.9979C45.3621 19.9979 47.0689 19.2516 48.4138 17.8657C49.8103 16.4264 50.431 14.614 50.431 12.4817ZM46.7069 12.4817C46.7069 13.921 46.3965 15.0404 45.7241 15.7867C45.1034 16.533 44.2758 16.9061 43.3448 16.9061C42.4138 16.9061 41.6379 16.533 40.9655 15.7867C40.3448 15.0404 39.9827 13.921 39.9827 12.535C39.9827 11.149 40.2931 10.0296 40.9655 9.28329C41.5862 8.53699 42.4138 8.16385 43.3448 8.16385C44.2758 8.16385 45.0517 8.53699 45.7241 9.28329C46.3965 10.0296 46.7069 11.0957 46.7069 12.4817Z" fill="#E2001A"/>
<path d="M56.1724 5.44528V0.434448L52.5 2.62002V5.44528H50.8448V8.43045H52.5V14.614C52.5 15.9467 52.5517 16.8529 52.6035 17.2794C52.7069 17.919 52.8621 18.3988 53.1207 18.7719C53.3793 19.1451 53.7414 19.4116 54.2586 19.6249C54.7759 19.8381 55.3966 19.9447 56.0173 19.9447C57.1035 19.9447 58.0345 19.7315 58.8621 19.3583L58.5517 16.4265C57.9311 16.693 57.4655 16.7463 57.1035 16.7463C56.8448 16.7463 56.6897 16.693 56.4828 16.5331C56.3276 16.4265 56.2242 16.2665 56.1724 16.0533C56.1207 15.8401 56.1207 15.2004 56.1207 14.0277V8.43045H58.6035V5.44528H56.1724Z" fill="#E2001A"/>
<path d="M64.3966 5.44528V0.434448L60.7241 2.62002V5.44528H59.069V8.43045H60.7241V14.614C60.7241 15.9467 60.7759 16.8529 60.8276 17.2794C60.931 17.919 61.0862 18.3988 61.3448 18.7719C61.6035 19.1451 61.9655 19.4116 62.4828 19.6249C63 19.8381 63.6207 19.9447 64.2414 19.9447C65.3276 19.9447 66.2586 19.7315 67.0862 19.3583L66.7759 16.4265C66.1552 16.693 65.6897 16.7463 65.3276 16.7463C65.069 16.7463 64.9138 16.693 64.7069 16.5331C64.5517 16.4265 64.4483 16.2665 64.3966 16.0533C64.3448 15.8401 64.3448 15.2004 64.3448 14.0277V8.43045H66.8276V5.44528H64.3966Z" fill="#E2001A"/>
<path d="M81.2069 12.4817C81.2069 10.3494 80.5345 8.5903 79.2414 7.20433C77.8966 5.81835 76.1897 5.12537 74.1207 5.12537C72.7759 5.12537 71.5862 5.44521 70.4483 6.03158C69.3621 6.67126 68.4828 7.52417 67.9138 8.75022C67.2931 9.92297 67.0345 11.149 67.0345 12.3751C67.0345 14.0276 67.3448 15.3602 67.9138 16.533C68.5345 17.6524 69.3621 18.5587 70.5517 19.145C71.7414 19.7314 72.8793 19.9979 74.1207 19.9979C76.1379 19.9979 77.8448 19.2516 79.1897 17.8657C80.5345 16.4264 81.2069 14.614 81.2069 12.4817ZM77.4828 12.4817C77.4828 13.921 77.1724 15.0404 76.5 15.7867C75.8793 16.533 75.0517 16.9061 74.1207 16.9061C73.1897 16.9061 72.4138 16.533 71.7414 15.7867C71.1207 15.0404 70.7586 13.921 70.7586 12.535C70.7586 11.149 71.069 10.0296 71.7414 9.28329C72.3621 8.53699 73.1897 8.16385 74.1207 8.16385C75.0517 8.16385 75.8276 8.53699 76.5 9.28329C77.1207 10.0296 77.4828 11.0957 77.4828 12.4817Z" fill="#E2001A"/>
<path d="M0 23.0365V31.9387H81V23.0365H0Z" fill="#1F2120"/>
<path d="M87.1552 10.0297C88.6552 10.0297 90 8.85691 90 7.2044C90 5.5519 88.6552 4.37915 87.1552 4.37915C85.6552 4.37915 84.3104 5.5519 84.3104 7.2044C84.3621 8.85691 85.6552 10.0297 87.1552 10.0297ZM85.0345 7.1511C85.0345 5.81843 85.9655 4.85891 87.2069 4.85891C88.3966 4.85891 89.3793 5.81843 89.3793 7.1511C89.3793 8.48376 88.3966 9.44329 87.2069 9.44329C85.9655 9.44329 85.0345 8.53707 85.0345 7.1511ZM86.638 7.36432H87.1035L87.8793 8.7503H88.5L87.6724 7.36432C88.138 7.31102 88.5 7.09779 88.5 6.51142C88.5 5.81843 88.0862 5.5519 87.3104 5.5519H86.1207V8.80361H86.6897L86.638 7.36432ZM86.638 6.88456V5.97835H87.2069C87.5173 5.97835 87.8793 6.03166 87.8793 6.4048C87.8793 6.83126 87.569 6.88456 87.2069 6.88456H86.638Z" fill="#E2001A"/>
<path d="M4.29307 29.6465H5.17238V25.8084H7.39652V25.3286H2.01721V25.8084H4.29307V29.6465ZM11.4827 29.6465H12.1034V26.608H11.4827V27.9406H8.99997V26.608H8.37928V29.6465H8.99997V28.2605H11.4827V29.6465ZM13.3965 29.6465H16.862V29.3266H13.9655V28.2605H16.6034V27.9406H13.9655V26.9811H16.7069V26.6613H13.3448V29.6465H13.3965ZM22.2413 29.6465H23.1207V25.8084H25.3448V25.3286H19.9138V25.8084H22.2413V29.6465ZM26.3793 29.6465H27V26.608H26.3793V29.6465ZM28.3448 29.6465H28.9655V28.3671H30.5689C31.0862 28.3671 31.9655 28.1006 31.8103 27.3543C31.7069 26.7146 30.7241 26.608 30.362 26.608H28.3448V29.6465ZM28.9655 26.9278H30.362C30.6207 26.9278 31.1379 27.0344 31.1896 27.4076C31.2413 27.834 30.6724 27.9939 30.5689 27.9939H28.9655V26.9278ZM32.8965 29.6465H33.5172V28.3671H35.1724C35.6896 28.3671 36.5689 28.1006 36.4138 27.3543C36.3103 26.7146 35.3276 26.608 34.9655 26.608H32.9482V29.6465H32.8965ZM33.5689 26.9278H34.9655C35.2241 26.9278 35.7413 27.0344 35.7931 27.4076C35.8448 27.834 35.2758 27.9939 35.1724 27.9939H33.5689V26.9278ZM37.5517 29.6465H38.1724V26.608H37.5517V29.6465ZM43.2413 29.6465V26.608H42.6207V29.0601L40.1896 26.608H39.4655V29.6465H40.0862V27.1943L42.5172 29.6465H43.2413ZM46.5517 28.3671H48C48 28.5803 48.0517 28.9535 47.3276 29.22C47.1207 29.3266 46.862 29.3799 46.5 29.3799C46.0862 29.3799 45.6207 29.2733 45.3103 29.1134C45 28.9002 44.7413 28.527 44.7931 28.1539C44.7931 27.7807 45 27.4076 45.3103 27.1943C45.6207 26.9811 46.0345 26.9278 46.5 26.9278C47.3793 26.9278 47.8448 27.301 47.8965 27.5675H48.5172C48.4655 27.3543 48.362 26.9811 47.5345 26.7146C47.2758 26.608 46.862 26.608 46.5 26.608C45.8276 26.608 45.2586 26.8212 45 26.9278C44.3793 27.2477 44.1724 27.7807 44.1724 28.2072C44.1724 28.6336 44.3793 29.1667 45 29.4865C45.2586 29.5931 45.8276 29.7531 46.2931 29.7531C47.2241 29.7531 47.6379 29.4865 48 29.2733L48.1551 29.6465H48.5689V27.9939H46.5517V28.3671ZM52.2413 29.6465H53.1207V27.7807H55.3965C56.1207 27.7807 57.362 27.3543 57.2069 26.3414C57 25.3819 55.7069 25.222 55.1379 25.2753H52.2413V29.6465ZM53.1207 25.7551H55.0862C55.5 25.7551 56.2241 25.8617 56.3276 26.5014C56.3793 27.0877 55.5517 27.301 55.3965 27.301H53.1724V25.7551H53.1207ZM60.4655 26.5014C59.7931 26.5014 59.2241 26.7146 58.9655 26.8212C58.3448 27.141 58.1379 27.6741 58.1379 28.1006C58.1379 28.527 58.3448 29.0601 58.9655 29.3799C59.2241 29.4865 59.7931 29.6998 60.4655 29.6998C61.1379 29.6998 61.7069 29.4865 61.9655 29.3799C62.5862 29.0601 62.7931 28.527 62.7931 28.1006C62.7931 27.6741 62.5862 27.141 61.9655 26.8212C61.7069 26.7146 61.1379 26.5014 60.4655 26.5014ZM60.4655 26.8745C60.8793 26.8745 61.3448 26.9811 61.6551 27.141C61.9655 27.3543 62.2241 27.7274 62.1724 28.1006C62.1724 28.4737 61.9655 28.8469 61.6551 29.0601C61.3448 29.2733 60.931 29.3266 60.4655 29.3266C60.0517 29.3266 59.5862 29.22 59.2758 29.0601C58.9655 28.8469 58.7069 28.4737 58.7586 28.1006C58.7586 27.7274 58.9655 27.3543 59.2758 27.141C59.5862 26.9811 60.0517 26.8745 60.4655 26.8745ZM67.7586 29.0068L66.6724 26.5547H66L64.9138 29.0068L64.0345 26.5547H63.3103L64.5517 29.5931H65.2241L66.3103 27.141L67.3965 29.5931H68.0689L69.3103 26.5547H68.6379L67.7586 29.0068ZM70.2413 29.6465H73.7069V29.3266H70.862V28.2605H73.5V27.9406H70.862V26.9811H73.6034V26.6613H70.2413V29.6465ZM74.8448 29.6465H75.4655V28.3138H77.0689C78.0517 28.3138 77.7931 28.9002 77.8448 29.22C77.8965 29.3266 77.8965 29.4865 78 29.5931H78.7758V29.4865C78.5689 29.3799 78.5172 29.22 78.5172 28.8469C78.5172 28.3671 78.4655 28.2605 77.9482 28.0473C78.4138 27.834 78.6207 27.6741 78.5689 27.301C78.5172 26.608 77.7931 26.5014 77.0172 26.5014H74.8448V29.6465ZM77.0172 26.9278C77.431 26.9278 78 26.9811 77.8965 27.5142C77.8448 27.9406 77.431 27.9939 77.0172 27.9939H75.4655V26.9811H77.0172" fill="white"/>
</svg>

<svg width="90" height="32" viewBox="0 0 90 32" fill="none" xmlns="http://www.w3.org/2000/svg"><path d="M14.276 7.47A4.701 4.701 0 0015 4.965c0-.852-.207-1.599-.569-2.292a4.88 4.88 0 00-1.5-1.599 4.297 4.297 0 00-1.965-.8C10.24.169 9.103.062 7.603.062H0v19.564h6.466c2.43-.053 3.982-.053 4.603-.107 1.034-.106 1.862-.426 2.586-.96.724-.48 1.242-1.172 1.655-2.025.414-.853.621-1.706.621-2.612 0-1.12-.31-2.079-.931-2.932-.62-.853-1.5-1.44-2.69-1.759.776-.426 1.449-.96 1.966-1.76zm-3.052-1.918c0 .64-.207 1.12-.569 1.546-.362.373-.88.64-1.552.693-.362.053-1.293.053-2.793.053H3.776V3.313H6c1.81 0 2.897.053 3.259.053.62.107 1.138.32 1.448.693.362.373.517.906.517 1.493zm.673 8.21c0 .692-.207 1.278-.57 1.652-.361.426-.827.64-1.396.8-.362.106-1.241.106-2.638.106H3.776v-5.224h3.103c1.707 0 2.897.106 3.414.266.517.213.931.48 1.19.853.31.427.414.96.414 1.546zm8.948-10.236V.061H17.12v3.465h3.724zm0 16.099V5.445H17.12v14.18h3.724zm14.224-8.849c0-1.12-.052-1.92-.207-2.559a3.272 3.272 0 00-.724-1.546c-.31-.48-.828-.853-1.5-1.12-.672-.319-1.397-.426-2.172-.426-1.81 0-3.31.8-4.5 2.452V5.5h-3.363v14.18h3.673v-6.4c0-1.599.103-2.665.259-3.251.206-.587.517-1.067.982-1.386.466-.32 1.087-.533 1.655-.533.466 0 .931.106 1.242.373a2.8 2.8 0 01.776 1.066c.155.426.258 1.44.258 2.985v7.25h3.673l-.052-9.01zm15.362 1.706c0-2.133-.672-3.892-1.965-5.278-1.345-1.386-3.052-2.079-5.121-2.079-1.345 0-2.535.32-3.673.907-1.086.64-1.965 1.492-2.534 2.718a7.655 7.655 0 00-.88 3.625c0 1.653.311 2.985.88 4.158.62 1.12 1.448 2.026 2.638 2.612a7.663 7.663 0 003.569.853c2.017 0 3.724-.746 5.069-2.132 1.396-1.44 2.017-3.252 2.017-5.384zm-3.724 0c0 1.439-.31 2.558-.983 3.305a3.006 3.006 0 01-2.38 1.12c-.93 0-1.706-.374-2.379-1.12-.62-.747-.982-1.866-.982-3.252 0-1.386.31-2.505.983-3.252a3.006 3.006 0 012.379-1.12c.93 0 1.707.374 2.38 1.12.672.747.982 1.813.982 3.199zm9.465-7.037V.435L52.5 2.62v2.825h-1.655V8.43H52.5v6.184c0 1.333.052 2.239.103 2.665.104.64.26 1.12.518 1.493s.62.64 1.138.853c.517.213 1.138.32 1.758.32 1.086 0 2.017-.213 2.845-.587l-.31-2.931c-.62.266-1.087.32-1.449.32a.886.886 0 01-.62-.214.778.778 0 01-.31-.48c-.052-.213-.052-.853-.052-2.025V8.43h2.482V5.445h-2.43zm8.225 0V.435L60.724 2.62v2.825H59.07V8.43h1.655v6.184c0 1.333.052 2.239.104 2.665.103.64.258 1.12.517 1.493.258.373.62.64 1.138.853.517.213 1.138.32 1.758.32 1.087 0 2.018-.213 2.845-.587l-.31-2.931c-.62.266-1.086.32-1.448.32a.886.886 0 01-.621-.214.777.777 0 01-.31-.48c-.052-.213-.052-.853-.052-2.025V8.43h2.483V5.445h-2.431zm16.81 7.037c0-2.133-.672-3.892-1.966-5.278-1.344-1.386-3.051-2.079-5.12-2.079-1.345 0-2.535.32-3.673.907-1.086.64-1.965 1.492-2.534 2.718a7.655 7.655 0 00-.88 3.625c0 1.653.31 2.985.88 4.158.62 1.12 1.448 2.026 2.638 2.612 1.19.586 2.327.853 3.569.853 2.017 0 3.724-.746 5.069-2.132 1.344-1.44 2.017-3.252 2.017-5.384zm-3.724 0c0 1.439-.31 2.558-.983 3.305a3.006 3.006 0 01-2.38 1.12c-.93 0-1.706-.374-2.379-1.12-.62-.747-.982-1.866-.982-3.252 0-1.386.31-2.505.982-3.252a3.006 3.006 0 012.38-1.12c.93 0 1.707.374 2.379 1.12.62.747.983 1.813.983 3.199z" fill="#E2001A"/><path d="M0 23.037v8.902h81v-8.902H0z" fill="#1F2120"/><path d="M87.155 10.03c1.5 0 2.845-1.173 2.845-2.826 0-1.652-1.345-2.825-2.845-2.825-1.5 0-2.845 1.173-2.845 2.825.052 1.653 1.345 2.826 2.845 2.826zm-2.12-2.879c0-1.333.93-2.292 2.172-2.292 1.19 0 2.172.96 2.172 2.292 0 1.333-.982 2.292-2.172 2.292-1.241 0-2.172-.906-2.172-2.292zm1.603.213h.465l.776 1.386h.621l-.828-1.386c.466-.053.828-.266.828-.853 0-.693-.414-.96-1.19-.96h-1.19v3.253h.57l-.052-1.44zm0-.48v-.906h.569c.31 0 .672.054.672.427 0 .426-.31.48-.672.48h-.569z" fill="#E2001A"/><path d="M4.293 29.646h.88v-3.838h2.224v-.48h-5.38v.48h2.276v3.838zm7.19 0h.62v-3.038h-.62v1.333H9v-1.333h-.62v3.038H9V28.26h2.483v1.386zm1.913 0h3.466v-.32h-2.896V28.26h2.637v-.32h-2.638v-.959h2.742v-.32h-3.362v2.985h.051zm8.845 0h.88v-3.838h2.224v-.48h-5.431v.48h2.327v3.838zm4.138 0H27v-3.038h-.62v3.038zm1.966 0h.62v-1.279h1.604c.517 0 1.396-.266 1.241-1.013-.103-.64-1.086-.746-1.448-.746h-2.017v3.038zm.62-2.718h1.397c.259 0 .776.106.828.48.051.426-.518.586-.621.586h-1.604v-1.066zm3.932 2.718h.62v-1.279h1.655c.518 0 1.397-.266 1.242-1.013-.104-.64-1.086-.746-1.449-.746h-2.017v3.038h-.051zm.672-2.718h1.396c.26 0 .776.106.828.48.052.426-.517.586-.62.586h-1.604v-1.066zm3.983 2.718h.62v-3.038h-.62v3.038zm5.69 0v-3.038h-.621v2.452l-2.431-2.452h-.724v3.038h.62v-2.452l2.431 2.453h.724zm3.31-1.279H48c0 .213.052.586-.672.853-.207.107-.466.16-.828.16-.414 0-.88-.107-1.19-.267-.31-.213-.569-.586-.517-.96a1.2 1.2 0 01.517-.959c.31-.213.724-.266 1.19-.266.88 0 1.345.373 1.397.64h.62c-.052-.214-.155-.587-.983-.853-.258-.107-.672-.107-1.034-.107-.672 0-1.241.213-1.5.32-.62.32-.828.853-.828 1.28 0 .426.207.959.828 1.279.259.106.828.266 1.293.266.931 0 1.345-.267 1.707-.48l.155.373h.414v-1.652h-2.017v.373zm5.69 1.28h.879V27.78h2.276c.724 0 1.965-.427 1.81-1.44-.207-.96-1.5-1.119-2.07-1.066h-2.896v4.372zm.879-3.892h1.965c.414 0 1.138.107 1.242.746.051.587-.776.8-.931.8h-2.225v-1.546h-.051zm7.344.746c-.672 0-1.24.214-1.5.32-.62.32-.827.853-.827 1.28 0 .426.207.96.828 1.279.258.107.827.32 1.5.32.672 0 1.24-.213 1.5-.32.62-.32.827-.853.827-1.28 0-.426-.207-.959-.828-1.279-.258-.106-.827-.32-1.5-.32zm0 .373c.414 0 .88.107 1.19.267.31.213.57.586.517.96a1.2 1.2 0 01-.517.96c-.31.212-.724.266-1.19.266-.413 0-.879-.107-1.19-.267-.31-.213-.568-.586-.516-.96a1.2 1.2 0 01.517-.959c.31-.16.776-.266 1.19-.266zm7.294 2.133l-1.087-2.452H66l-1.086 2.452-.88-2.452h-.724l1.242 3.038h.672l1.086-2.452 1.087 2.452h.672l1.241-3.038h-.672l-.88 2.452zm2.482.64h3.466v-.32h-2.845V28.26H73.5v-.32h-2.638v-.959h2.741v-.32h-3.362v2.985zm4.604 0h.62v-1.333h1.604c.983 0 .724.586.776.906.052.107.052.267.155.373h.776v-.107c-.207-.106-.259-.266-.259-.64 0-.479-.051-.585-.569-.799.466-.213.673-.373.62-.746-.05-.693-.775-.8-1.55-.8h-2.173v3.145zm2.172-2.72c.414 0 .983.054.88.587-.052.427-.466.48-.88.48h-1.551V26.98h1.551" fill="#fff"/></svg>
